X: 1
T: Boys Of Patstai, The
M: 4/4
L: 1/8
R: reel
K: Dmaj
|:FAAF GBBG|FAAF (3EFE D2|FAAF GB (3BBB|de (3fed e2 d2:|
|:de (3fed Be (3eee|de (3fed B2A2|de (3fed Be (3eee|dBAF E2D2:|
